assets/icons/qvision/rv_hookup.svg

<svg width="24" height="24" viewBox="0 0 24 24" fill="none" xmlns="http://www.w3.org/2000/svg">
<g clip-path="url(#clip0_147_6279)">
<path d="M20 17V11C20 9.9 19.1 9 18 9H7V7L4 10L7 13V11H11V14H4V17C4 18.1 4.9 19 6 19H8C8 20.66 9.34 22 11 22C12.66 22 14 20.66 14 19H22V17H20ZM11 20C10.45 20 10 19.55 10 19C10 18.45 10.45 18 11 18C11.55 18 12 18.45 12 19C12 19.55 11.55 20 11 20ZM18 14H14V11H18V14ZM17 2V4H9V6H17V8L20 5L17 2Z" fill="#323232"/>
</g>
<defs>
<clipPath id="clip0_147_6279">
<rect width="24" height="24" fill="white"/>
</clipPath>
</defs>
</svg>

<svg xmlns="http://www.w3.org/2000/svg" height="24" viewBox="0 0 24 24" width="24"><path d="M0 0h24v24H0z" fill="none"/><path d="M14 11h4v3h-4z" fill="none"/><path d="M20 17v-6c0-1.1-.9-2-2-2H7V7l-3 3 3 3v-2h4v3H4v3c0 1.1.9 2 2 2h2c0 1.66 1.34 3 3 3s3-1.34 3-3h8v-2h-2zm-9 3c-.55 0-1-.45-1-1s.45-1 1-1 1 .45 1 1-.45 1-1 1zm7-6h-4v-3h4v3zM17 2v2H9v2h8v2l3-3z"/></svg>
